!!!OTL: 1460. Der eifrige Jaeger.
!!!ARE: Europa, Mitteleuropa, Deutschland, suedwestlicher Schwarzwald
!!!SCT: E1460
!!!TXL: @@DE
!!!YEM: Copyright 1995, estate of Helmut Schaffrath.
**kern	**text
*ICvox	*
*M3/4	*
*k[b-]	*
*F:	*
=1	=1
!LO:TX:a:t=Ländlertempo.	!
!LO:TX:a:t=Erk, Liederhort 170.	!
{(8ccL	Fruh,
8b-J)	.
(8aL	fruh,
8ccJ)	.
4ff	des
=2	=2
4cc	Mor-
8b-L	-gens
8ccJ	.
4a;}	fruh
=3	=3
{(8ccL	Hab
8b-J)	ich
(8aL	ſchon
8ccJ)	.
4ff	kein
=4	=4
4cc	Raſt
8b-L	noch
8ccJ	.
4a;}	Ruh;
=5	=5
{8fL	Gleich
8ddJ	wenn
4dd	ich
8ffL	vom
8ddJ	.
=6	=6
4cc	Schlaf
4dd	er-
4cc}	-wach,
=7	=7
{8ccL	lauf
8b-J	.
4b-	ich
4cc	dem
=8	=8
8.aL	Wild-
16gJ	.
8aL	-brät
8b-J	.
4cc}	nach
=9	=9
{8f	in
8a	den
4cc	grü-
8b-L	-nen
8ccJ	.
=10	=10
2a	Wald.
4r}	.
==	==
!!!AGN: Staende -, Jaeger - Lied
!!!ONB: ESAC (Essen Associative Code) Database: ERK3
!!!AMT: simple triple
!!!AIN: vox
!!!EED: Helmut Schaffrath
!!!EEV: 1.0
!!!GTL: Staendelieder (Berufslieder). 2. Jaegerlieder und Jaegerballaden.
!!!URL-scan: https://rosdok.uni-rostock.de/mcrviewer/recordIdentifier/rosdok_ppn745177999/iview2/phys_0324.iview2?x=-128.77276441889285&y=1198.0445749880746&scale=0.5870222003877487&rotation=0&layout=singlePageLayout
!!!ENC: Anna Maria Matuszewska
!!!EEV: 2024/12/31
*-	*-
